ix/quote-up_bulk.svg

<svg viewBox="0 0 24 24" fill="none" xmlns="http://www.w3.org/2000/svg" height="1em" width="1em">
  <path d="M8.09027 11.63H3.40027C3.48027 6.95997 4.40026 6.18996 7.27026 4.48996C7.60026 4.28996 7.71025 3.86996 7.51025 3.52996C7.31025 3.19996 6.89023 3.08997 6.55023 3.28997C3.17023 5.28997 1.99023 6.50995 1.99023 12.33V17.72C1.99023 19.43 3.38026 20.81 5.08026 20.81H8.08026C9.84026 20.81 11.1702 19.48 11.1702 17.72V14.72C11.1802 12.96 9.85027 11.63 8.09027 11.63Z" fill="#292D32"/>
  <path opacity="0.4" d="M18.9105 11.63H14.2205C14.3005 6.95997 15.2206 6.18996 18.0906 4.48996C18.4206 4.28996 18.5306 3.86996 18.3306 3.52996C18.1306 3.19996 17.7105 3.08997 17.3705 3.28997C13.9905 5.28997 12.8105 6.50995 12.8105 12.33V17.72C12.8105 19.43 14.2006 20.81 15.9006 20.81H18.9006C20.6606 20.81 21.9905 19.48 21.9905 17.72V14.72C22.0005 12.96 20.6705 11.63 18.9105 11.63Z" fill="#292D32"/>
</svg>

<svg viewBox="0 0 24 24" fill="none" xmlns="http://www.w3.org/2000/svg" height="1em" width="1em">
  <path d="M8.09 11.63H3.4c.08-4.67 1-5.44 3.87-7.14.33-.2.44-.62.24-.96a.698.698 0 0 0-.96-.24c-3.38 2-4.56 3.22-4.56 9.04v5.39c0 1.71 1.39 3.09 3.09 3.09h3c1.76 0 3.09-1.33 3.09-3.09v-3c.01-1.76-1.32-3.09-3.08-3.09Z" fill="#292D32"/>
  <path opacity=".4" d="M18.91 11.63h-4.69c.08-4.67 1-5.44 3.87-7.14.33-.2.44-.62.24-.96a.698.698 0 0 0-.96-.24c-3.38 2-4.56 3.22-4.56 9.04v5.39c0 1.71 1.39 3.09 3.09 3.09h3c1.76 0 3.09-1.33 3.09-3.09v-3c.01-1.76-1.32-3.09-3.08-3.09Z" fill="#292D32"/>
</svg>
